modules/stroke-7/icons/wallet.svg

<?xml version="1.0" encoding="utf-8"?>
<!-- Generated by IcoMoon.io -->
<!DOCTYPE svg PUBLIC "-//W3C//DTD SVG 1.1//EN" "http://www.w3.org/Graphics/SVG/1.1/DTD/svg11.dtd">
<svg version="1.1" xmlns="http://www.w3.org/2000/svg" xmlns:xlink="http://www.w3.org/1999/xlink" width="32" height="32" viewBox="0 0 32 32">
<g id="icomoon-ignore">
</g>
<path d="M27.993 8.536h-3.463v-2.926c0-1.328-1.076-2.405-2.405-2.405h-16.514c-1.328 0-2.405 1.077-2.405 2.405v22.383c0 0.443 0.359 0.802 0.802 0.802h23.986c0.443 0 0.802-0.359 0.802-0.802v-18.655c0-0.443-0.359-0.802-0.802-0.802zM5.61 4.271h16.514c0.738 0 1.339 0.601 1.339 1.339v2.926h-19.192v-2.926c0-0.738 0.601-1.339 1.339-1.339zM27.729 27.729h-23.457v-18.126h23.457v18.126z" fill="#000000"></path>
<path d="M20.265 18.666c0 1.472 1.194 2.665 2.666 2.665s2.665-1.193 2.665-2.665c0-1.472-1.193-2.666-2.665-2.666s-2.666 1.193-2.666 2.666zM24.53 18.666c0 0.881-0.717 1.598-1.599 1.598s-1.6-0.717-1.6-1.598c0-0.882 0.718-1.599 1.6-1.599s1.599 0.717 1.599 1.599z" fill="#000000"></path>
</svg>

<svg xmlns="http://www.w3.org/2000/svg" width="32" height="32"><path d="M27.993 8.536H24.53V5.61a2.405 2.405 0 0 0-2.405-2.405H5.611A2.405 2.405 0 0 0 3.206 5.61v22.383c0 .443.359.802.802.802h23.986a.802.802 0 0 0 .802-.802V9.338a.802.802 0 0 0-.802-.802zM5.61 4.271h16.514a1.34 1.34 0 0 1 1.339 1.339v2.926H4.271V5.61A1.34 1.34 0 0 1 5.61 4.271zm22.119 23.458H4.272V9.603h23.457v18.126z"/><path d="M20.265 18.666a2.666 2.666 0 1 0 5.331-.001 2.666 2.666 0 0 0-5.331.001zm4.265 0a1.6 1.6 0 0 1-3.199 0 1.6 1.6 0 0 1 3.199 0z"/></svg>
